SVG_Azure_Grouped/Application/DICOM service.svg

<?xml version="1.0" encoding="UTF-8" standalone="no"?>
<!-- Generated by Microsoft Visio, SVG Export DICOM service.svg Page-1 -->

<svg
   xmlns:dc="http://purl.org/dc/elements/1.1/"
   xmlns:cc="http://creativecommons.org/ns#"
   xmlns:rdf="http://www.w3.org/1999/02/22-rdf-syntax-ns#"
   xmlns:svg="http://www.w3.org/2000/svg"
   xmlns="http://www.w3.org/2000/svg"
   xmlns:sodipodi="http://sodipodi.sourceforge.net/DTD/sodipodi-0.dtd"
   xmlns:inkscape="http://www.inkscape.org/namespaces/inkscape"
   width="0.78735763in"
   height="0.53638625in"
   viewBox="0 0 56.689657 38.619998"
   xml:space="preserve"
   class="st4"
   version="1.1"
   id="svg46"
   sodipodi:docname="DICOM service.svg"
   style="font-size:12px;overflow:visible;color-interpolation-filters:sRGB;fill:none;fill-rule:evenodd;stroke-linecap:square;stroke-miterlimit:3"
   inkscape:version="0.92.5 (2060ec1f9f, 2020-04-08)"><metadata
   id="metadata50"><rdf:RDF><cc:Work
       rdf:about=""><dc:format>image/svg+xml</dc:format><dc:type
         rdf:resource="http://purl.org/dc/dcmitype/StillImage" /></cc:Work></rdf:RDF></metadata><sodipodi:namedview
   pagecolor="#ffffff"
   bordercolor="#666666"
   borderopacity="1"
   objecttolerance="10"
   gridtolerance="10"
   guidetolerance="10"
   inkscape:pageopacity="0"
   inkscape:pageshadow="2"
   inkscape:window-width="640"
   inkscape:window-height="480"
   id="namedview48"
   showgrid="false"
   inkscape:zoom="1.6434468"
   inkscape:cx="37.795167"
   inkscape:cy="25.019503"
   inkscape:window-x="0"
   inkscape:window-y="0"
   inkscape:window-maximized="0"
   inkscape:current-layer="svg46" />
	<style
   type="text/css"
   id="style2">
	<![CDATA[
		.st1 {fill:url(#grad0-6);stroke:none;stroke-linecap:butt;stroke-width:34}
		.st2 {fill:#ffffff;stroke:none;stroke-linecap:butt;stroke-width:34}
		.st3 {fill:url(#grad0-12);stroke:none;stroke-linecap:butt;stroke-width:34}
		.st4 {fill:none;fill-rule:evenodd;font-size:12px;overflow:visible;stroke-linecap:square;stroke-miterlimit:3}
	]]>
	</style>

	<defs
   id="Patterns_And_Gradients">
		<linearGradient
   id="grad0-6"
   x1="-1.0334786e-05"
   y1="83.695001"
   x2="46.790681"
   y2="83.695001"
   gradientTransform="scale(1.2115663,0.82537785)"
   gradientUnits="userSpaceOnUse">
			<stop
   offset="0"
   stop-color="#0078d4"
   stop-opacity="1"
   id="stop4" />
			<stop
   offset="0.155"
   stop-color="#1380da"
   stop-opacity="1"
   id="stop6" />
			<stop
   offset="0.53"
   stop-color="#3c91e5"
   stop-opacity="1"
   id="stop8" />
			<stop
   offset="0.82"
   stop-color="#559cec"
   stop-opacity="1"
   id="stop10" />
			<stop
   offset="1"
   stop-color="#5ea0ef"
   stop-opacity="1"
   id="stop12" />
		</linearGradient>
		<linearGradient
   id="grad0-12"
   x1="-0.0021374727"
   y1="95.015177"
   x2="26.503778"
   y2="95.015177"
   gradientTransform="scale(1.2399626,0.80647595)"
   gradientUnits="userSpaceOnUse">
			<stop
   offset="0"
   stop-color="#ef7100"
   stop-opacity="1"
   id="stop15" />
			<stop
   offset="1"
   stop-color="#faa21d"
   stop-opacity="1"
   id="stop17" />
		</linearGradient>
	</defs>
	<g
   id="g44"
   transform="translate(-34.000392,-33.99522)">
		<title
   id="title21">Page-1</title>
		<g
   id="group14254-1"
   transform="translate(34,-34.0157)">
			<title
   id="title23">DICOM service.14254</title>
			<g
   id="group14255-2">
				<title
   id="title25">Sheet.14255</title>
				<g
   id="shape14256-3"
   transform="translate(0,-1.06908)">
					<title
   id="title27">Sheet.14256</title>
					<path
   d="m 0,105.86 a 1.88981,1.84329 -180 0 0 1.89,1.84 H 54.8 a 1.88981,1.84329 -180 0 0 1.89,-1.84 V 70.93 A 1.88981,1.84329 -180 0 0 54.8,69.08 H 1.89 A 1.88981,1.84329 -180 0 0 0,70.93 Z"
   class="st1"
   id="path29"
   inkscape:connector-curvature="0"
   style="fill:url(#grad0-6);stroke:none;stroke-width:34;stroke-linecap:butt" />
				</g>
				<g
   id="shape14257-7"
   transform="translate(3.65354,-4.8846)">
					<title
   id="title32">Sheet.14257</title>
					<path
   d="M 1.16,86.37 A 1.15906,1.13052 0 0 1 0,85.24 v -7.4 a 1.15591,1.12745 0 0 1 1.16,-1.12 h 7.1 a 1.15906,1.13052 0 0 1 0,2.26 H 2.33 v 6.26 a 1.15591,1.12745 0 0 1 -1.16,1.13 z m 47.06,0 a 1.15591,1.12745 0 0 1 -1.15,-1.13 v -6.26 h -5.95 a 1.15906,1.13052 0 0 1 0,-2.26 h 7.1 a 1.15906,1.13052 0 0 1 1.17,1.12 v 7.4 a 1.15591,1.12745 0 0 1 -1.16,1.13 z M 8.26,107.7 H 1.16 A 1.15906,1.13052 0 0 1 0,106.57 v -7.4 a 1.16,1.1314369 0 1 1 2.32,0 v 6.27 h 5.94 a 1.15906,1.13052 0 0 1 0,2.26 z m 39.96,0 h -7.1 a 1.15906,1.13052 0 1 1 0,-2.26 h 5.94 v -6.27 a 1.15906,1.13052 0 0 1 2.31,0 v 7.4 a 1.15591,1.12745 0 0 1 -1.16,1.13 z"
   class="st2"
   id="path34"
   inkscape:connector-curvature="0"
   style="fill:#ffffff;stroke:none;stroke-width:34;stroke-linecap:butt" />
				</g>
				<g
   id="shape14258-9"
   transform="translate(11.9237)">
					<title
   id="title37">Sheet.14258</title>
					<path
   d="m 24.61,77.15 a 1.34173,1.3087 -180 0 0 -2.06,-0.1 8.46929,8.2608 0 0 1 -6.3,2.52 8.47874,8.27002 0 0 1 -6.26,-2.49 1.34173,1.3087 -180 0 0 -2.07,0.13 L 0.19,87.65 a 1.02992,1.00457 -180 0 0 0,1.17 c 2.45,3.34 15.41,18.88 32.42,0 a 1.02992,1.00457 -180 0 0 0.05,-1.26 z"
   class="st3"
   id="path39"
   inkscape:connector-curvature="0"
   style="fill:url(#grad0-12);stroke:none;stroke-width:34;stroke-linecap:butt" />
				</g>
			</g>
		</g>
	</g>
</svg>

<?xml version="1.0" encoding="UTF-8" standalone="no"?>
<!DOCTYPE svg PUBLIC "-//W3C//DTD SVG 1.1//EN" "http://www.w3.org/Graphics/SVG/1.1/DTD/svg11.dtd">
<!-- Generated by Microsoft Visio, SVG Export DICOM service.svg Page-1 -->
<svg xmlns="http://www.w3.org/2000/svg" xmlns:xlink="http://www.w3.org/1999/xlink" xmlns:ev="http://www.w3.org/2001/xml-events"
		width="1.73185in" height="1.49584in" viewBox="0 0 124.693 107.701" xml:space="preserve" color-interpolation-filters="sRGB"
		class="st4">
	<style type="text/css">
	<![CDATA[
		.st1 {fill:url(#grad0-6);stroke:none;stroke-linecap:butt;stroke-width:34}
		.st2 {fill:#ffffff;stroke:none;stroke-linecap:butt;stroke-width:34}
		.st3 {fill:url(#grad0-12);stroke:none;stroke-linecap:butt;stroke-width:34}
		.st4 {fill:none;fill-rule:evenodd;font-size:12px;overflow:visible;stroke-linecap:square;stroke-miterlimit:3}
	]]>
	</style>

	<defs id="Patterns_And_Gradients">
		<linearGradient id="grad0-6" x1="0" y1="0" x2="1" y2="0" gradientTransform="rotate(-90 0.5 0.5)">
			<stop offset="0" stop-color="#0078d4" stop-opacity="1"/>
			<stop offset="0.155" stop-color="#1380da" stop-opacity="1"/>
			<stop offset="0.53" stop-color="#3c91e5" stop-opacity="1"/>
			<stop offset="0.82" stop-color="#559cec" stop-opacity="1"/>
			<stop offset="1" stop-color="#5ea0ef" stop-opacity="1"/>
		</linearGradient>
		<linearGradient id="grad0-12" x1="0" y1="0" x2="1" y2="0" gradientTransform="rotate(-90 0.5 0.5)">
			<stop offset="0" stop-color="#ef7100" stop-opacity="1"/>
			<stop offset="1" stop-color="#faa21d" stop-opacity="1"/>
		</linearGradient>
	</defs>
	<g>
		<title>Page-1</title>
		<g id="group13907-1" transform="translate(34,-34.0157)">
			<title>DICOM service.13907</title>
			<g id="group13908-2">
				<title>Sheet.13908</title>
				<g id="shape13909-3" transform="translate(0,-1.06908)">
					<title>Sheet.13909</title>
					<path d="M0 105.86 A1.88981 1.84329 -180 0 0 1.89 107.7 L54.8 107.7 A1.88981 1.84329 -180 0 0 56.69 105.86 L56.69
								 70.93 A1.88981 1.84329 -180 0 0 54.8 69.08 L1.89 69.08 A1.88981 1.84329 -180 0 0 0 70.93 L0 105.86
								 Z" class="st1"/>
				</g>
				<g id="shape13910-7" transform="translate(3.65354,-4.8846)">
					<title>Sheet.13910</title>
					<path d="M1.16 86.37 A1.15906 1.13052 0 0 1 0 85.24 L0 77.84 A1.15591 1.12745 0 0 1 1.16 76.72 L8.26 76.72 A1.15906
								 1.13052 0 0 1 8.26 78.98 L2.33 78.98 L2.33 85.24 A1.15591 1.12745 0 0 1 1.17 86.37 L1.16 86.37 ZM48.22
								 86.37 A1.15591 1.12745 0 0 1 47.07 85.24 L47.07 78.98 L41.12 78.98 A1.15906 1.13052 0 0 1 41.12
								 76.72 L48.22 76.72 A1.15906 1.13052 0 0 1 49.39 77.84 L49.39 85.24 A1.15591 1.12745 0 0 1 48.23
								 86.37 L48.22 86.37 ZM8.26 107.7 L1.16 107.7 A1.15906 1.13052 0 0 1 0 106.57 L0 99.17 A1.15906 1.13052
								 0 1 1 2.32 99.17 L2.32 105.44 L8.26 105.44 A1.15906 1.13052 0 0 1 8.26 107.7 ZM48.22 107.7 L41.12
								 107.7 A1.15906 1.13052 0 1 1 41.12 105.44 L47.06 105.44 L47.06 99.17 A1.15906 1.13052 0 0 1 49.37
								 99.17 L49.37 106.57 A1.15591 1.12745 0 0 1 48.21 107.7 L48.22 107.7 Z" class="st2"/>
				</g>
				<g id="shape13911-9" transform="translate(11.9237,-2.13163E-13)">
					<title>Sheet.13911</title>
					<path d="M24.61 77.15 A1.34173 1.3087 -180 0 0 22.55 77.05 A8.46929 8.2608 0 0 1 16.25 79.57 A8.47874 8.27002
								 0 0 1 9.99 77.08 A1.34173 1.3087 -180 0 0 7.92 77.21 L0.19 87.65 A1.02992 1.00457 -180 0 0 0.19
								 88.82 C2.64 92.16 15.6 107.7 32.61 88.82 A1.02992 1.00457 -180 0 0 32.66 87.56 L24.61 77.15 Z"
							class="st3"/>
				</g>
			</g>
		</g>
	</g>
</svg>
